X: 25425
T: March Past
R: polka
M: 2/4
K: Gmajor
|:G2 G>A|BA B<d|G2 G>A|Bd A2|
G2 G>A|BA Bd|g2 g>f|gB A2:|
|:Bd de/f/|gd ed|Bd de/f/|gB A2|
Bd de/f/|gd ed|Bd de/f/|g>f g2:|

